X: 60
T:Boree. TBe.060
M:2/2
L:1/4
Q:100
S:Thomas Bennet MS,1718, VWML
R:bourree
N:Time signature given as 2/
K:C minor
"Time sig. 2/3 in ms"f2a2 | g/a/ b =e g | f2 cB |\
 A/B/ cFc :||: f>gfc | _dBec |!
 _d>e f/e/_d/c/ | B2A2 |\
(G/F/)(G/A/) BG | (=E/D/)(E/F/) G =e | \
f>c (_d/B/)(c/G/) G2F2 ||
